resources/images/ams_rfid_2.svg

<svg width="30" height="30" xmlns="http://www.w3.org/2000/svg" fill="none">
 <defs>
  <clipPath id="clip0_7112_29465">
   <rect id="svg_1" fill="white" height="30" width="30"/>
  </clipPath>
 </defs>
 <g>
  <title>Layer 1</title>
  <g id="svg_2" clip-path="url(#clip0_7112_29465)">
   <path id="svg_3" stroke="black" d="m31.1539,-1.15234l-32.30771,0l0,32.30764l32.30771,0l0,-32.30764z"/>
   <path id="svg_4" fill="#6B6B6B" d="m19.8613,22.2754c-1.439,0.9615 -3.1307,1.4747 -4.8613,1.4747l0,-2.3962c0,-0.219 -0.2544,-0.3396 -0.4239,-0.201l-4.3626,3.5682c-0.127,0.1039 -0.127,0.2981 0,0.4019l4.3626,3.5682c0.1695,0.1387 0.4239,0.0181 0.4239,-0.2009l0,-2.4903c0.5037,0 1.0048,-0.0346 1.5,-0.1027c1.6434,-0.2263 3.2212,-0.8223 4.6113,-1.7511c1.8089,-1.2087 3.2188,-2.9267 4.0514,-4.9367c0.8325,-2.01 1.0504,-4.2217 0.6259,-6.3555c-0.4244,-2.1338 -1.472,-4.09379 -3.0104,-5.63217c-1.5384,-1.53838 -3.4984,-2.58603 -5.6322,-3.01046c-2.1338,-0.42444 -4.3455,-0.2066 -6.3555,0.62596c-2.01001,0.83256 -3.72797,2.24246 -4.93667,4.0514c-0.92883,1.39007 -1.52487,2.96787 -1.75109,4.61127c-0.06815,0.4952 -0.10274,0.9963 -0.10274,1.5l0.74993,0l0.75007,0l0.74993,0c0,-1.7306 0.51319,-3.4223 1.47466,-4.8613c0.96147,-1.43891 2.32801,-2.56043 3.92691,-3.2227c1.5989,-0.66227 3.3582,-0.83555 5.0556,-0.49793c1.6973,0.33762 3.2564,1.17099 4.4801,2.39471c1.2237,1.22372 2.0571,2.78282 2.3947,4.48022c0.3377,1.6973 0.1644,3.4566 -0.4979,5.0555c-0.6623,1.5989 -1.7838,2.9654 -3.2227,3.9269z" clip-rule="evenodd" fill-rule="evenodd"/>
  </g>
 </g>
</svg>

<svg width="30" height="30" viewBox="0 0 30 30" fill="none" xmlns="http://www.w3.org/2000/svg">
<g clip-path="url(#clip0_10670_19474)">
<mask id="mask0_10670_19474" style="mask-type:luminance" maskUnits="userSpaceOnUse" x="0" y="0" width="30" height="30">
<path d="M30 0H0V30H30V0Z" fill="white"/>
</mask>
<g mask="url(#mask0_10670_19474)">
<path d="M31.1534 -1.15234H-1.1543V31.1553H31.1534V-1.15234Z" stroke="black"/>
<path fill-rule="evenodd" clip-rule="evenodd" d="M19.8613 22.2754C18.4223 23.2369 16.7306 23.7501 15 23.7501V21.3539C15 21.1349 14.7456 21.0143 14.5761 21.1529L10.2135 24.7211C10.0865 24.825 10.0865 25.0192 10.2135 25.123L14.5761 28.6912C14.7456 28.8299 15 28.7093 15 28.4903V26C15.5037 26 16.0048 25.9654 16.5 25.8973C18.1434 25.671 19.7212 25.075 21.1113 24.1462C22.9202 22.9375 24.3301 21.2195 25.1627 19.2095C25.9952 17.1995 26.2131 14.9878 25.7886 12.854C25.3642 10.7202 24.3166 8.76021 22.7782 7.22183C21.2398 5.68345 19.2798 4.6358 17.146 4.21137C15.0122 3.78693 12.8005 4.00477 10.7905 4.83733C8.78049 5.66989 7.06253 7.07979 5.85383 8.88873C4.925 10.2788 4.32896 11.8566 4.10274 13.5C4.03459 13.9952 4 14.4963 4 15H4.74993H5.5H6.24993C6.24993 13.2694 6.76312 11.5777 7.72459 10.1387C8.68606 8.69979 10.0526 7.57827 11.6515 6.916C13.2504 6.25373 15.0097 6.08045 16.7071 6.41807C18.4044 6.75569 19.9635 7.58906 21.1872 8.81278C22.4109 10.0365 23.2443 11.5956 23.5819 13.293C23.9196 14.9903 23.7463 16.7496 23.084 18.3485C22.4217 19.9474 21.3002 21.3139 19.8613 22.2754Z" fill="#6B6B6B"/>
</g>
</g>
<defs>
<clipPath id="clip0_10670_19474">
<rect width="30" height="30" fill="white"/>
</clipPath>
</defs>
</svg>
